P3
64 64
255
000 000 000 000 000 000 000 000 000 000 000 000 000 000 000 000 000 000 000 000 000 000 000 000 000 000 000 000 000 000 000 000 000 000 000 000 000 000 000 000 000 000 000 000 000 000 000 000 000 000 000 000 000 000 000 000 000 000 000 000 000 000 000 000 000 000 000 000 000 000 000 000 000 000 000 000 000 000 000 000 000 000 000 000 000 000 000 000 000 000 000 000 000 000 000 000 000 000 000 000 000 000 000 000 000 000 000 000 000 000 000 000 000 000 000 000 000 000 000 000 000 000 000 000 000 000 000 000 000 000 000 000 000 000 000 000 000 000 000 000 000 000 000 000 000 000 000 000 000 000 000 000 000 000 000 000 000 000 000 000 000 000 000 000 000 000 000 000 000 000 000 000 000 000 000 000 000 000 000 000 000 000 000 000 000 000 000 000 000 000 000 000
000 000 000 000 000 000 000 000 000 000 000 000 000 000 000 000 000 000 000 000 000 000 000 000 000 000 000 000 000 000 000 000 000 000 000 000 000 000 000 000 000 000 000 000 000 000 000 000 000 000 000 000 000 000 000 000 000 000 000 000 000 000 000 000 000 000 000 000 000 000 000 000 000 000 000 000 000 000 000 000 000 000 000 000 000 000 000 000 000 000 000 000 000 000 000 000 000 000 000 000 000 000 000 000 000 000 000 000 000 000 000 000 000 000 000 000 000 000 000 000 000 000 000 000 000 000 000 000 000 000 000 000 000 000 000 000 000 000 000 000 000 000 000 000 000 000 000 000 000 000 000 000 000 000 000 000 000 000 000 000 000 000 000 000 000 000 000 000 000 000 000 000 000 000 000 000 000 000 000 000 000 000 000 000 000 000 000 000 000 000 000 000
000 000 000 000 000 000 000 000 000 000 000 000 000 000 000 000 000 000 000 000 000 000 000 000 000 000 000 000 000 000 000 000 000 000 000 000 000 000 000 000 000 000 000 000 000 000 000 000 000 000 000 000 000 000 000 000 000 000 000 000 000 000 000 000 000 000 000 000 000 000 000 000 000 000 000 000 000 000 000 000 000 000 000 000 000 000 000 000 000 000 000 000 000 000 000 000 000 000 000 000 000 000 000 000 000 000 000 000 000 000 000 000 000 000 000 000 000 000 000 000 000 000 000 000 000 000 000 000 000 000 000 000 000 000 000 000 000 000 000 000 000 000 000 000 000 000 000 000 000 000 000 000 000 000 000 000 000 000 000 000 000 000 000 000 000 000 000 000 000 000 000 000 000 000 000 000 000 000 000 000 000 000 000 000 000 000 000 000 000 000 000 000
000 000 000 000 000 000 000 000 000 000 000 000 000 000 000 000 000 000 000 000 000 000 000 000 000 000 000 000 000 000 000 000 000 000 000 000 000 000 000 000 000 000 000 000 000 000 000 000 000 000 000 000 000 000 000 000 000 000 000 000 000 000 000 000 000 000 000 000 000 000 000 000 000 000 000 000 000 000 000 000 000 000 000 000 000 000 000 000 000 000 000 000 000 000 000 000 000 000 000 000 000 000 000 000 000 000 000 000 000 000 000 000 000 000 000 000 000 000 000 000 000 000 000 000 000 000 000 000 000 000 000 000 000 000 000 000 000 000 000 000 000 000 000 000 000 000 000 000 000 000 000 000 000 000 000 000 000 000 000 000 000 000 000 000 000 000 000 000 000 000 000 000 000 000 000 000 000 000 000 000 000 000 000 000 000 000 000 000 000 000 000 000
000 000 000 000 000 000 000 000 000 000 000 000 000 000 000 000 000 000 000 000 000 000 000 000 000 000 000 000 000 000 000 000 000 000 000 000 000 000 000 000 000 000 000 000 000 000 000 000 000 000 000 000 000 000 000 000 000 000 000 000 000 000 000 000 000 000 000 000 000 000 000 000 000 000 000 000 000 000 000 000 000 000 000 000 000 000 000 000 000 000 000 000 000 000 000 000 000 000 000 000 000 000 000 000 000 000 000 000 000 000 000 000 000 000 000 000 000 000 000 000 000 000 000 000 000 000 000 000 000 000 000 000 000 000 000 000 000 000 000 000 000 000 000 000 000 000 000 000 000 000 000 000 000 000 000 000 000 000 000 000 000 000 000 000 000 000 000 000 000 000 000 000 000 000 000 000 000 000 000 000 000 000 000 000 000 000 000 000 000 000 000 000
000 000 000 000 000 000 000 000 000 000 000 000 000 000 000 000 000 000 000 000 000 000 000 000 000 000 000 000 000 000 000 000 000 000 000 000 000 000 000 000 000 000 000 000 000 000 000 000 000 000 000 000 000 000 000 000 000 000 000 000 000 000 000 000 000 000 000 000 000 000 000 000 000 000 000 000 000 000 000 000 000 000 000 000 000 000 000 000 000 000 000 000 000 000 000 000 000 000 000 000 000 000 000 000 000 000 000 000 000 000 000 000 000 000 000 000 000 000 000 000 000 000 000 000 000 000 000 000 000 000 000 000 000 000 000 000 000 000 000 000 000 000 000 000 000 000 000 000 000 000 000 000 000 000 000 000 000 000 000 000 000 000 000 000 000 000 000 000 000 000 000 000 000 000 000 000 000 000 000 000 000 000 000 000 000 000 000 000 000 000 000 000
000 000 000 000 000 000 000 000 000 000 000 000 000 000 000 000 000 000 000 000 000 000 000 000 000 000 000 000 000 000 000 000 000 000 000 000 000 000 000 000 000 000 000 000 000 000 000 000 000 000 000 000 000 000 000 000 000 000 000 000 000 000 000 000 000 000 000 000 000 000 000 000 000 000 000 000 000 000 000 000 000 000 000 000 000 000 000 000 000 000 000 000 000 000 000 000 000 000 000 000 000 000 000 000 000 000 000 000 000 000 000 000 000 000 000 000 000 000 000 000 000 000 000 000 000 000 000 000 000 000 000 000 000 000 000 000 000 000 000 000 000 000 000 000 000 000 000 000 000 000 000 000 000 000 000 000 000 000 000 000 000 000 000 000 000 000 000 000 000 000 000 000 000 000 000 000 000 000 000 000 000 000 000 000 000 000 000 000 000 000 000 000
000 000 000 000 000 000 000 000 000 000 000 000 000 000 000 000 000 000 000 000 000 000 000 000 000 000 000 000 000 000 000 000 000 000 000 000 000 000 000 000 000 000 000 000 000 000 000 000 000 000 000 000 000 000 000 000 000 000 000 000 000 000 000 000 000 000 000 000 000 000 000 000 000 000 000 000 000 000 000 000 000 000 000 000 000 000 000 000 000 000 000 000 000 000 000 000 000 000 000 000 000 000 000 000 000 000 000 000 000 000 000 000 000 000 000 000 000 000 000 000 000 000 000 000 000 000 000 000 000 000 000 000 000 000 000 000 000 000 000 000 000 000 000 000 000 000 000 000 000 000 000 000 000 000 000 000 000 000 000 000 000 000 000 000 000 000 000 000 000 000 000 000 000 000 000 000 000 000 000 000 000 000 000 000 000 000 000 000 000 000 000 000
000 000 000 000 000 000 000 000 000 000 000 000 000 000 000 000 000 000 000 000 000 000 000 000 000 000 000 000 000 000 000 000 000 000 000 000 000 000 000 000 000 000 000 000 000 000 000 000 000 000 000 000 000 000 000 000 000 000 000 000 000 000 000 000 000 000 000 000 000 000 000 000 000 000 000 000 000 000 000 000 000 000 000 000 000 000 000 000 000 000 000 000 000 000 000 000 000 000 000 000 000 000 000 000 000 000 000 000 000 000 000 000 000 000 000 000 000 000 000 000 000 000 000 000 000 000 000 000 000 000 000 000 000 000 000 000 000 000 000 000 000 000 000 000 000 000 000 000 000 000 000 000 000 000 000 000 000 000 000 000 000 000 000 000 000 000 000 000 000 000 000 000 000 000 000 000 000 000 000 000 000 000 000 000 000 000 000 000 000 000 000 000
000 000 000 000 000 000 000 000 000 000 000 000 000 000 000 000 000 000 000 000 000 000 000 000 000 000 000 000 000 000 000 000 000 000 000 000 000 000 000 000 000 000 000 000 000 000 000 000 000 000 000 000 000 000 000 000 000 000 000 000 000 000 000 000 000 000 000 000 000 000 000 000 000 000 000 000 000 000 000 000 000 000 000 000 000 000 000 000 000 000 000 000 000 000 000 000 000 000 000 000 000 000 000 000 000 000 000 000 000 000 000 000 000 000 000 000 000 000 000 000 000 000 000 000 000 000 000 000 000 000 000 000 000 000 000 000 000 000 000 000 000 000 000 000 000 000 000 000 000 000 000 000 000 000 000 000 000 000 000 000 000 000 000 000 000 000 000 000 000 000 000 000 000 000 000 000 000 000 000 000 000 000 000 000 000 000 000 000 000 000 000 000
000 000 000 000 000 000 000 000 000 000 000 000 000 000 000 000 000 000 000 000 000 000 000 000 000 000 000 000 000 000 000 000 000 000 000 000 000 000 000 000 000 000 000 000 000 000 000 000 000 000 000 000 000 000 000 000 000 000 000 000 000 000 000 000 000 000 000 000 000 000 000 000 000 000 000 000 000 000 000 000 000 000 000 000 000 000 000 000 000 000 000 000 000 000 000 000 000 000 000 000 000 000 000 000 000 000 000 000 000 000 000 000 000 000 000 000 000 000 000 000 000 000 000 000 000 000 000 000 000 000 000 000 000 000 000 000 000 000 000 000 000 000 000 000 000 000 000 000 000 000 000 000 000 000 000 000 000 000 000 000 000 000 000 000 000 000 000 000 000 000 000 000 000 000 000 000 000 000 000 000 000 000 000 000 000 000 000 000 000 000 000 000
000 000 000 000 000 000 000 000 000 000 000 000 000 000 000 000 000 000 000 000 000 000 000 000 000 000 000 000 000 000 000 000 000 000 000 000 000 000 000 000 000 000 000 000 000 000 000 000 000 000 000 000 000 000 000 000 000 000 000 000 000 000 000 000 000 000 000 000 000 000 000 000 000 000 000 000 000 000 000 000 000 000 000 000 000 000 000 000 000 000 000 000 000 000 000 000 000 000 000 000 000 000 000 000 000 000 000 000 000 000 000 000 000 000 000 000 000 000 000 000 000 000 000 000 000 000 000 000 000 000 000 000 000 000 000 000 000 000 000 000 000 000 000 000 000 000 000 000 000 000 000 000 000 000 000 000 000 000 000 000 000 000 000 000 000 000 000 000 000 000 000 000 000 000 000 000 000 000 000 000 000 000 000 000 000 000 000 000 000 000 000 000
000 000 000 000 000 000 000 000 000 000 000 000 000 000 000 000 000 000 000 000 000 000 000 000 000 000 000 000 000 000 000 000 000 000 000 000 000 000 000 000 000 000 000 000 000 000 000 000 000 000 000 000 000 000 000 000 000 000 000 000 000 000 000 000 000 000 000 000 000 000 000 000 000 000 000 000 000 000 000 000 000 000 000 000 000 000 000 000 000 000 000 000 000 000 000 000 000 000 000 000 000 000 000 000 000 000 000 000 000 000 000 000 000 000 000 000 000 000 000 000 000 000 000 000 000 000 000 000 000 000 000 000 000 000 000 000 000 000 000 000 000 000 000 000 000 000 000 000 000 000 000 000 000 000 000 000 000 000 000 000 000 000 000 000 000 000 000 000 000 000 000 000 000 000 000 000 000 000 000 000 000 000 000 000 000 000 000 000 000 000 000 000
000 000 000 000 000 000 000 000 000 000 000 000 000 000 000 000 000 000 000 000 000 000 000 000 000 000 000 000 000 000 000 000 000 000 000 000 000 000 000 000 000 000 000 000 000 000 000 000 000 000 000 000 000 000 000 000 000 000 000 000 000 000 000 000 000 000 000 000 000 000 000 000 000 000 000 000 000 000 000 000 000 000 000 000 000 000 000 000 000 000 000 000 000 000 000 000 000 000 000 000 000 000 000 000 000 000 000 000 000 000 000 000 000 000 000 000 000 000 000 000 000 000 000 000 000 000 000 000 000 000 000 000 000 000 000 000 000 000 000 000 000 000 000 000 000 000 000 000 000 000 000 000 000 000 000 000 000 000 000 000 000 000 000 000 000 000 000 000 000 000 000 000 000 000 000 000 000 000 000 000 000 000 000 000 000 000 000 000 000 000 000 000
000 000 000 000 000 000 000 000 000 000 000 000 000 000 000 000 000 000 000 000 000 000 000 000 000 000 000 000 000 000 000 000 000 000 000 000 000 000 000 000 000 000 000 000 000 000 000 000 000 000 000 000 000 000 000 000 000 000 000 000 000 000 000 000 000 000 000 000 000 000 000 000 000 000 000 000 000 000 000 000 000 000 000 000 000 000 000 000 000 000 000 000 000 000 000 000 000 000 000 000 000 000 000 000 000 000 000 000 000 000 000 000 000 000 000 000 000 000 000 000 000 000 000 000 000 000 000 000 000 000 000 000 000 000 000 000 000 000 000 000 000 000 000 000 000 000 000 000 000 000 000 000 000 000 000 000 000 000 000 000 000 000 000 000 000 000 000 000 000 000 000 000 000 000 000 000 000 000 000 000 000 000 000 000 000 000 000 000 000 000 000 000
000 000 000 000 000 000 000 000 000 000 000 000 000 000 000 000 000 000 000 000 000 000 000 000 000 000 000 000 000 000 000 000 000 000 000 000 000 000 000 000 000 000 000 000 000 046 046 046 046 046 046 046 046 046 046 046 046 046 046 046 046 046 046 046 046 046 000 000 000 000 000 000 000 000 000 000 000 000 000 000 000 000 000 000 000 000 000 000 000 000 000 000 000 000 000 000 000 000 000 000 000 000 000 000 000 000 000 000 000 000 000 000 000 000 000 000 000 000 000 000 000 000 000 000 000 000 000 000 000 000 000 000 000 000 000 000 000 000 000 000 000 000 000 000 000 000 000 000 000 000 000 000 000 000 000 000 000 000 000 000 000 000 000 000 000 000 000 000 000 000 000 000 000 000 000 000 000 000 000 000 000 000 000 000 000 000 000 000 000 000 000 000
000 000 000 000 000 000 000 000 000 000 000 000 000 000 000 000 000 000 000 000 000 000 000 000 000 000 000 000 000 000 000 000 000 000 000 000 046 046 046 046 046 046 046 046 046 046 046 046 046 046 046 046 046 046 046 046 046 046 046 046 046 046 046 046 046 046 046 046 046 046 046 046 046 046 046 000 000 000 000 000 000 000 000 000 000 000 000 000 000 000 000 000 000 000 000 000 000 000 000 000 000 000 000 000 000 000 000 000 000 000 000 000 000 000 000 000 000 000 000 000 000 000 000 000 000 000 000 000 000 000 000 000 000 000 000 000 000 000 000 000 000 000 000 000 000 000 000 000 000 000 000 000 000 000 000 000 000 000 000 000 000 000 000 000 000 000 000 000 000 000 000 000 000 000 000 000 000 000 000 000 000 000 000 000 000 000 000 000 000 000 000 000
000 000 000 000 000 000 000 000 000 000 000 000 000 000 000 000 000 000 000 000 000 000 000 000 000 000 000 000 000 000 046 046 046 046 046 046 046 046 046 046 046 046 046 046 046 046 046 046 046 046 046 000 000 000 000 000 000 000 000 000 000 000 000 000 000 000 000 000 000 000 000 000 000 000 000 046 046 046 046 046 046 000 000 000 000 000 000 000 000 000 000 000 000 000 000 000 000 000 000 000 000 000 000 000 000 000 000 000 000 000 000 000 000 000 000 000 000 000 000 000 000 000 000 000 000 000 000 000 000 000 000 000 000 000 000 000 000 000 000 000 000 000 000 000 000 000 000 000 000 000 000 000 000 000 000 000 000 000 000 000 000 000 000 000 000 000 000 000 000 000 000 000 000 000 000 000 000 000 000 000 000 000 000 000 000 000 000 000 000 000 000 000
000 000 000 000 000 000 000 000 000 000 000 000 000 000 000 000 000 000 000 000 000 000 000 000 000 000 000 046 046 046 046 046 046 046 046 046 046 046 046 046 046 046 046 046 046 000 000 000 000 000 000 073 073 073 073 073 073 073 073 073 073 073 073 073 073 073 073 073 073 073 073 073 073 073 073 000 000 000 000 000 000 046 046 046 000 000 000 000 000 000 000 000 000 000 000 000 000 000 000 000 000 000 000 000 000 000 000 000 000 000 000 000 000 000 000 000 000 000 000 000 000 000 000 000 000 000 000 000 000 000 000 000 000 000 000 000 000 000 000 000 000 000 000 000 000 000 000 000 000 000 000 000 000 000 000 000 000 000 000 000 000 000 000 000 000 000 000 000 000 000 000 000 000 000 000 000 000 000 000 000 000 000 000 000 000 000 000 000 000 000 000 000
000 000 000 000 000 000 000 000 000 000 000 000 000 000 000 000 000 000 000 000 000 000 000 000 046 046 046 046 046 046 046 046 046 046 046 046 046 046 046 000 000 000 000 000 000 073 073 073 073 073 073 073 073 073 073 073 073 073 073 073 073 073 073 073 073 073 073 073 073 073 073 073 073 073 073 073 073 073 073 073 073 000 000 000 000 000 000 000 000 000 000 000 000 000 000 000 000 000 000 000 000 000 000 000 000 000 000 000 000 000 000 000 000 000 000 000 000 000 000 000 000 000 000 000 000 000 000 000 000 000 000 000 000 000 000 000 000 000 000 000 000 000 000 000 000 000 000 000 000 000 000 000 000 000 000 000 000 000 000 000 000 000 000 000 000 000 000 000 000 000 000 000 000 000 000 000 000 000 000 000 000 000 000 000 000 000 000 000 000 000 000 000
000 000 000 000 000 000 000 000 000 000 000 000 000 000 000 000 000 000 000 000 000 046 046 046 046 046 046 046 046 046 046 046 046 000 000 000 000 000 000 073 073 073 073 073 073 073 073 073 073 073 073 073 073 073 073 073 073 073 073 073 073 073 073 073 073 073 073 073 073 073 073 073 073 073 073 073 073 073 073 073 073 073 073 073 073 073 073 000 000 000 000 000 000 000 000 000 000 000 000 000 000 000 000 000 000 000 000 000 000 000 000 000 000 000 000 000 000 000 000 000 000 000 000 000 000 000 000 000 000 000 000 000 000 000 000 000 000 000 000 000 000 000 000 000 000 000 000 000 000 000 000 000 000 000 000 000 000 000 000 000 000 000 000 000 000 000 000 000 000 000 000 000 000 000 000 000 000 000 000 000 000 000 000 000 000 000 000 000 000 000 000 000
000 000 000 000 000 000 000 000 000 000 000 000 000 000 000 000 000 000 046 046 046 046 046 046 046 046 046 046 046 046 000 000 000 073 073 073 073 073 073 073 073 073 073 073 073 073 073 073 073 073 073 073 073 073 000 000 000 000 000 000 000 000 000 000 000 000 000 000 000 073 073 073 073 073 073 073 073 073 073 073 073 073 073 073 073 073 073 073 073 073 073 073 073 000 000 000 000 000 000 000 000 000 000 000 000 000 000 000 000 000 000 000 000 000 000 000 000 000 000 000 000 000 000 000 000 000 000 000 000 000 000 000 000 000 000 000 000 000 000 000 000 000 000 000 000 000 000 000 000 000 000 000 000 000 000 000 000 000 000 000 000 000 000 000 000 000 000 000 000 000 000 000 000 000 000 000 000 000 000 000 000 000 000 000 000 000 000 000 000 000 000 000
000 000 000 000 000 000 000 000 000 000 000 000 000 000 000 000 000 000 046 046 046 046 046 046 046 046 046 000 000 000 073 073 073 073 073 073 073 073 073 073 073 073 073 073 073 073 073 073 000 000 000 000 000 000 046 046 046 046 046 046 046 046 046 046 046 046 046 046 046 000 000 000 000 000 000 073 073 073 073 073 073 073 073 073 073 073 073 073 073 073 073 073 073 000 000 000 000 000 000 000 000 000 000 000 000 000 000 000 000 000 000 000 000 000 000 000 000 000 000 000 000 000 000 000 000 000 000 000 000 000 000 000 000 000 000 000 000 000 000 000 000 000 000 000 000 000 000 000 000 000 000 000 000 000 000 000 000 000 000 000 000 000 000 000 000 000 000 000 000 000 000 000 000 000 000 000 000 000 000 000 000 000 000 000 000 000 000 000 000 000 000 000
000 000 000 000 000 000 000 000 000 000 000 000 000 000 000 046 046 046 046 046 046 046 046 046 000 000 000 073 073 073 073 073 073 073 073 073 073 073 073 073 073 073 000 000 000 000 000 000 046 046 046 046 046 046 046 046 046 046 046 046 046 046 046 046 046 046 046 046 046 046 046 046 046 046 046 000 000 000 000 000 000 073 073 073 073 073 073 073 073 073 073 073 073 073 073 073 000 000 000 000 000 000 000 000 000 000 000 000 000 000 000 000 000 000 000 000 000 000 000 000 000 000 000 000 000 000 000 000 000 000 000 000 000 000 000 000 000 000 000 000 000 000 000 000 000 000 000 000 000 000 000 000 000 000 000 000 000 000 000 000 000 000 000 000 000 000 000 000 000 000 000 000 000 000 000 000 000 000 000 000 000 000 000 000 000 000 000 000 000 000 000 000
000 000 000 000 000 000 000 000 000 000 000 000 000 000 000 046 046 046 046 046 046 000 000 000 073 073 073 073 073 073 073 073 073 073 073 073 073 073 073 000 000 000 046 046 046 046 046 046 046 046 046 046 046 046 046 046 046 046 046 046 046 046 046 046 046 046 046 046 046 046 046 046 046 046 046 046 046 046 046 046 046 000 000 000 073 073 073 073 073 073 073 073 073 073 073 073 000 000 000 000 000 000 000 000 000 000 000 000 000 000 000 000 000 000 000 000 000 000 000 000 000 000 000 000 000 000 000 000 000 000 000 000 000 000 000 000 000 000 000 000 000 000 000 000 000 000 000 000 000 000 000 000 000 000 000 000 000 000 000 000 000 000 000 000 000 000 000 000 000 000 000 000 000 000 000 000 000 000 000 000 000 000 000 000 000 000 000 000 000 000 000 000
000 000 000 000 000 000 000 000 000 000 000 000 000 000 000 046 046 046 046 046 046 000 000 000 073 073 073 073 073 073 073 073 073 073 073 073 000 000 000 046 046 046 046 046 046 046 046 046 046 046 046 046 046 046 046 046 046 046 046 046 046 046 046 046 046 046 046 046 046 046 046 046 046 046 046 014 014 014 014 014 014 014 014 014 000 000 000 073 073 073 073 073 073 073 073 073 000 000 000 000 000 000 000 000 000 000 000 000 000 000 000 000 000 000 000 000 000 000 000 000 000 000 000 000 000 000 000 000 000 000 000 000 000 000 000 000 000 000 000 000 000 000 000 000 000 000 000 000 000 000 000 000 000 000 000 000 000 000 000 000 000 000 000 000 000 000 000 000 000 000 000 000 000 000 000 000 000 000 000 000 000 000 000 000 000 000 000 000 000 000 000 000
000 000 000 000 000 000 000 000 000 000 000 000 046 046 046 046 046 046 000 000 000 073 073 073 073 073 073 073 073 073 073 073 073 000 000 000 046 046 046 046 046 046 046 046 046 046 046 046 046 046 046 046 046 046 046 046 046 046 046 046 046 046 046 046 046 046 046 046 046 014 014 014 014 014 014 014 014 014 046 046 046 046 046 046 046 046 046 000 000 000 073 073 073 073 073 073 073 073 073 000 000 000 000 000 000 000 000 000 000 000 000 000 000 000 000 000 000 000 000 000 000 000 000 000 000 000 000 000 000 000 000 000 000 000 000 000 000 000 000 000 000 000 000 000 000 000 000 000 000 000 000 000 000 000 000 000 000 000 000 000 000 000 000 000 000 000 000 000 000 000 000 000 000 000 000 000 000 000 000 000 000 000 000 000 000 000 000 000 000 000 000 000
000 000 000 000 000 000 000 000 000 000 000 000 046 046 046 046 046 046 000 000 000 073 073 073 073 073 073 073 073 073 073 073 073 000 000 000 046 046 046 046 046 046 046 046 046 046 046 046 046 046 046 046 046 046 046 046 046 046 046 046 046 046 046 046 046 046 014 014 014 014 014 014 046 046 046 046 046 046 046 046 046 046 046 046 046 046 046 046 046 046 000 000 000 000 000 000 073 073 073 000 000 000 000 000 000 000 000 000 000 000 000 000 000 000 000 000 000 000 000 000 000 000 000 000 000 000 000 000 000 000 000 000 000 000 000 000 000 000 000 000 000 000 000 000 000 000 000 000 000 000 000 000 000 000 000 000 000 000 000 000 000 000 000 000 000 000 000 000 000 000 000 000 000 000 000 000 000 000 000 000 000 000 000 000 000 000 000 000 000 000 000 000
000 000 000 000 000 000 000 000 000 000 000 000 046 046 046 046 046 046 000 000 000 073 073 073 073 073 073 073 073 073 000 000 000 046 046 046 046 046 046 046 046 046 046 046 046 046 046 046 046 046 046 046 046 046 046 046 046 046 046 046 046 046 046 014 014 014 014 014 014 046 046 046 046 046 046 046 046 046 046 046 046 046 046 046 046 046 046 046 046 046 046 046 046 046 046 046 000 000 000 000 000 000 000 000 000 000 000 000 000 000 000 000 000 000 000 000 000 000 000 000 000 000 000 000 000 000 000 000 000 000 000 000 000 000 000 000 000 000 000 000 000 000 000 000 000 000 000 000 000 000 000 000 000 000 000 000 000 000 000 000 000 000 000 000 000 000 000 000 000 000 000 000 000 000 000 000 000 000 000 000 000 000 000 000 000 000 000 000 000 000 000 000
000 000 000 000 000 000 000 000 000 000 000 000 046 046 046 000 000 000 073 073 073 073 073 073 073 073 073 073 073 073 000 000 000 046 046 046 046 046 046 046 046 046 046 046 046 046 046 046 046 046 046 046 046 046 046 046 046 046 046 046 014 014 014 014 014 014 046 046 046 046 046 046 046 046 046 046 046 046 046 046 046 046 046 046 046 046 046 046 046 046 046 046 046 046 046 046 046 046 046 000 000 000 000 000 000 000 000 000 000 000 000 000 000 000 000 000 000 000 000 000 000 000 000 000 000 000 000 000 000 000 000 000 000 000 000 000 000 000 000 000 000 000 000 000 000 000 000 000 000 000 000 000 000 000 000 000 000 000 000 000 000 000 000 000 000 000 000 000 000 000 000 000 000 000 000 000 000 000 000 000 000 000 000 000 000 000 000 000 000 000 000 000
000 000 000 000 000 000 000 000 000 000 000 000 046 046 046 000 000 000 073 073 073 073 073 073 073 073 073 000 000 000 046 046 046 046 046 046 046 046 046 046 046 046 046 046 046 046 046 046 046 046 046 046 046 046 046 046 046 014 014 014 014 014 014 046 046 046 046 046 046 046 046 046 046 046 046 046 046 046 046 046 046 046 046 046 046 046 046 046 046 046 046 046 046 014 014 014 014 014 014 014 014 014 000 000 000 000 000 000 000 000 000 000 000 000 000 000 000 000 000 000 000 000 000 000 000 000 000 000 000 000 000 000 000 000 000 000 000 000 000 000 000 000 000 000 000 000 000 000 000 000 000 000 000 000 000 000 000 000 000 000 000 000 000 000 000 000 000 000 000 000 000 000 000 000 000 000 000 000 000 000 000 000 000 000 000 000 000 000 000 000 000 000
000 000 000 000 000 000 000 000 000 000 000 000 046 046 046 000 000 000 073 073 073 073 073 073 073 073 073 000 000 000 046 046 046 046 046 046 046 046 046 046 046 046 046 046 046 046 046 046 046 046 046 046 046 046 046 046 046 014 014 014 046 046 046 046 046 046 046 046 046 046 046 046 046 046 046 046 046 046 046 046 046 046 046 046 046 046 046 014 014 014 014 014 014 046 046 046 046 046 046 046 046 046 046 046 046 000 000 000 000 000 000 000 000 000 000 000 000 000 000 000 000 000 000 000 000 000 000 000 000 000 000 000 000 000 000 000 000 000 000 000 000 000 000 000 000 000 000 000 000 000 000 000 000 000 000 000 000 000 000 000 000 000 000 000 000 000 000 000 000 000 000 000 000 000 000 000 000 000 000 000 000 000 000 000 000 000 000 000 000 000 000 000
000 000 000 000 000 000 000 000 000 000 000 000 046 046 046 000 000 000 073 073 073 073 073 073 073 073 073 000 000 000 046 046 046 046 046 046 046 046 046 046 046 046 046 046 046 046 046 046 046 046 046 046 046 046 014 014 014 046 046 046 046 046 046 046 046 046 046 046 046 046 046 046 046 046 046 046 046 046 046 046 046 014 014 014 014 014 014 046 046 046 046 046 046 046 046 046 046 046 046 046 046 046 046 046 046 046 046 046 046 046 046 000 000 000 000 000 000 000 000 000 000 000 000 000 000 000 000 000 000 000 000 000 000 000 000 000 000 000 000 000 000 000 000 000 000 000 000 000 000 000 000 000 000 000 000 000 000 000 000 000 000 000 000 000 000 000 000 000 000 000 000 000 000 000 000 000 000 000 000 000 000 000 000 000 000 000 000 000 000 000 000 000
000 000 000 000 000 000 000 000 000 000 000 000 046 046 046 000 000 000 073 073 073 073 073 073 073 073 073 000 000 000 046 046 046 046 046 046 046 046 046 046 046 046 046 046 046 046 046 046 046 046 046 014 014 014 014 014 014 046 046 046 046 046 046 046 046 046 046 046 046 046 046 046 046 046 046 046 046 046 014 014 014 014 014 014 046 046 046 046 046 046 046 046 046 046 046 046 046 046 046 046 046 046 046 046 046 046 046 046 046 046 046 046 046 046 046 046 046 000 000 000 000 000 000 000 000 000 000 000 000 000 000 000 000 000 000 000 000 000 000 000 000 000 000 000 000 000 000 000 000 000 000 000 000 000 000 000 000 000 000 000 000 000 000 000 000 000 000 000 000 000 000 000 000 000 000 000 000 000 000 000 000 000 000 000 000 000 000 000 000 000 000 000
000 000 000 000 000 000 000 000 000 000 000 000 046 046 046 000 000 000 073 073 073 073 073 073 073 073 073 000 000 000 046 046 046 046 046 046 046 046 046 046 046 046 046 046 046 046 046 046 046 046 046 014 014 014 046 046 046 046 046 046 046 046 046 046 046 046 046 046 046 046 046 046 046 046 046 046 046 046 014 014 014 046 046 046 046 046 046 046 046 046 046 046 046 046 046 046 046 046 046 046 046 046 046 046 046 046 046 046 046 046 046 014 014 014 014 014 014 014 014 014 000 000 000 000 000 000 000 000 000 000 000 000 000 000 000 000 000 000 000 000 000 000 000 000 000 000 000 000 000 000 000 000 000 000 000 000 000 000 000 000 000 000 000 000 000 000 000 000 000 000 000 000 000 000 000 000 000 000 000 000 000 000 000 000 000 000 000 000 000 000 000 000
000 000 000 000 000 000 000 000 000 000 000 000 046 046 046 000 000 000 000 000 000 073 073 073 073 073 073 000 000 000 046 046 046 046 046 046 046 046 046 046 046 046 046 046 046 046 046 046 046 046 046 014 014 014 046 046 046 046 046 046 046 046 046 046 046 046 046 046 046 046 046 046 046 046 046 014 014 014 046 046 046 046 046 046 046 046 046 046 046 046 046 046 046 046 046 046 046 046 046 046 046 046 046 046 046 014 014 014 014 014 014 046 046 046 046 046 046 046 046 046 046 046 046 000 000 000 000 000 000 000 000 000 000 000 000 000 000 000 000 000 000 000 000 000 000 000 000 000 000 000 000 000 000 000 000 000 000 000 000 000 000 000 000 000 000 000 000 000 000 000 000 000 000 000 000 000 000 000 000 000 000 000 000 000 000 000 000 000 000 000 000 000
000 000 000 000 000 000 000 000 000 000 000 000 000 000 000 046 046 046 000 000 000 073 073 073 073 073 073 073 073 073 000 000 000 000 000 000 046 046 046 046 046 046 046 046 046 046 046 046 046 046 046 014 014 014 046 046 046 046 046 046 046 046 046 046 046 046 046 046 046 046 046 046 014 014 014 014 014 014 046 046 046 046 046 046 046 046 046 046 046 046 046 046 046 046 046 046 046 046 046 046 046 046 046 046 046 014 014 014 046 046 046 046 046 046 046 046 046 046 046 046 046 046 046 046 046 046 046 046 046 000 000 000 000 000 000 000 000 000 000 000 000 000 000 000 000 000 000 000 000 000 000 000 000 000 000 000 000 000 000 000 000 000 000 000 000 000 000 000 000 000 000 000 000 000 000 000 000 000 000 000 000 000 000 000 000 000 000 000 000 000 000 000
000 000 000 000 000 000 000 000 000 000 000 000 000 000 000 000 000 000 000 000 000 073 073 073 073 073 073 073 073 073 073 073 073 000 000 000 000 000 000 046 046 046 046 046 046 046 046 046 014 014 014 014 014 014 046 046 046 046 046 046 046 046 046 046 046 046 046 046 046 014 014 014 014 014 014 046 046 046 046 046 046 046 046 046 046 046 046 046 046 046 046 046 046 046 046 046 046 046 046 014 014 014 014 014 014 046 046 046 046 046 046 046 046 046 046 046 046 046 046 046 046 046 046 046 046 046 046 046 046 046 046 046 000 000 000 000 000 000 000 000 000 000 000 000 000 000 000 000 000 000 000 000 000 000 000 000 000 000 000 000 000 000 000 000 000 000 000 000 000 000 000 000 000 000 000 000 000 000 000 000 000 000 000 000 000 000 000 000 000 000 000 000
000 000 000 000 000 000 000 000 000 000 000 000 000 000 000 000 000 000 000 000 000 000 000 000 073 073 073 073 073 073 073 073 073 073 073 073 000 000 000 000 000 000 046 046 046 046 046 046 014 014 014 046 046 046 046 046 046 046 046 046 046 046 046 046 046 046 046 046 046 014 014 014 046 046 046 046 046 046 046 046 046 046 046 046 046 046 046 046 046 046 046 046 046 046 046 046 046 046 046 014 014 014 046 046 046 046 046 046 046 046 046 046 046 046 046 046 046 046 046 046 046 046 046 046 046 046 046 046 046 046 046 046 046 046 046 000 000 000 000 000 000 000 000 000 000 000 000 000 000 000 000 000 000 000 000 000 000 000 000 000 000 000 000 000 000 000 000 000 000 000 000 000 000 000 000 000 000 000 000 000 000 000 000 000 000 000 000 000 000 000 000 000
000 000 000 000 000 000 000 000 000 000 000 000 000 000 000 000 000 000 000 000 000 000 000 000 000 000 000 073 073 073 073 073 073 073 073 073 073 073 073 073 073 073 000 000 000 000 000 000 014 014 014 046 046 046 046 046 046 046 046 046 046 046 046 046 046 046 014 014 014 014 014 014 046 046 046 046 046 046 046 046 046 046 046 046 046 046 046 046 046 046 046 046 046 046 046 046 014 014 014 046 046 046 046 046 046 046 046 046 046 046 046 046 046 046 046 046 046 046 046 046 046 046 046 046 046 046 046 046 046 046 046 046 014 014 014 014 014 014 014 014 014 000 000 000 000 000 000 000 000 000 000 000 000 000 000 000 000 000 000 000 000 000 000 000 000 000 000 000 000 000 000 000 000 000 000 000 000 000 000 000 000 000 000 000 000 000 000 000 000 000 000 000
000 000 000 000 000 000 000 000 000 000 000 000 000 000 000 000 000 000 000 000 000 000 000 000 000 000 000 000 000 000 073 073 073 073 073 073 073 073 073 073 073 073 073 073 073 000 000 000 000 000 000 046 046 046 046 046 046 046 046 046 046 046 046 046 046 046 014 014 014 046 046 046 046 046 046 046 046 046 046 046 046 046 046 046 046 046 046 046 046 046 046 046 046 014 014 014 014 014 014 046 046 046 046 046 046 046 046 046 046 046 046 046 046 046 046 046 046 046 046 046 046 046 046 046 046 046 014 014 014 014 014 014 014 014 014 046 046 046 046 046 046 046 046 046 000 000 000 000 000 000 000 000 000 000 000 000 000 000 000 000 000 000 000 000 000 000 000 000 000 000 000 000 000 000 000 000 000 000 000 000 000 000 000 000 000 000 000 000 000 000 000 000
000 000 000 000 000 000 000 000 000 000 000 000 000 000 000 000 000 000 000 000 000 000 000 000 000 000 000 000 000 000 000 000 000 000 000 000 073 073 073 073 073 073 073 073 073 073 073 073 000 000 000 000 000 000 046 046 046 046 046 046 046 046 046 046 046 046 014 014 014 046 046 046 046 046 046 046 046 046 046 046 046 046 046 046 046 046 046 046 046 046 046 046 046 014 014 014 046 046 046 046 046 046 046 046 046 046 046 046 046 046 046 046 046 046 046 046 046 046 046 046 046 046 046 014 014 014 014 014 014 046 046 046 046 046 046 046 046 046 046 046 046 046 046 046 046 046 046 000 000 000 000 000 000 000 000 000 000 000 000 000 000 000 000 000 000 000 000 000 000 000 000 000 000 000 000 000 000 000 000 000 000 000 000 000 000 000 000 000 000 000 000 000
000 000 000 000 000 000 000 000 000 000 000 000 000 000 000 000 000 000 000 000 000 000 000 000 000 000 000 000 000 000 000 000 000 000 000 000 000 000 000 000 000 000 000 000 000 073 073 073 073 073 073 000 000 000 000 000 000 046 046 046 046 046 046 014 014 014 014 014 014 046 046 046 046 046 046 046 046 046 046 046 046 046 046 046 046 046 046 046 046 046 046 046 046 014 014 014 046 046 046 046 046 046 046 046 046 046 046 046 046 046 046 046 046 046 046 046 046 046 046 046 014 014 014 014 014 014 046 046 046 046 046 046 046 046 046 046 046 046 046 046 046 046 046 046 046 046 046 046 046 046 046 046 046 000 000 000 000 000 000 000 000 000 000 000 000 000 000 000 000 000 000 000 000 000 000 000 000 000 000 000 000 000 000 000 000 000 000 000 000 000 000 000
000 000 000 000 000 000 000 000 000 000 000 000 000 000 000 000 000 000 000 000 000 000 000 000 000 000 000 000 000 000 000 000 000 000 000 000 000 000 000 000 000 000 000 000 000 000 000 000 000 000 000 000 000 000 000 000 000 000 000 000 046 046 046 014 014 014 046 046 046 046 046 046 046 046 046 046 046 046 046 046 046 046 046 046 046 046 046 046 046 046 014 014 014 046 046 046 046 046 046 046 046 046 046 046 046 046 046 046 046 046 046 046 046 046 046 046 046 014 014 014 014 014 014 046 046 046 046 046 046 046 046 046 046 046 046 046 046 046 046 046 046 046 046 046 046 046 046 046 046 046 046 046 046 046 046 046 000 000 000 000 000 000 000 000 000 000 000 000 000 000 000 000 000 000 000 000 000 000 000 000 000 000 000 000 000 000 000 000 000 000 000 000
000 000 000 000 000 000 000 000 000 000 000 000 000 000 000 000 000 000 000 000 000 000 000 000 000 000 000 000 000 000 000 000 000 000 000 000 000 000 000 000 000 000 000 000 000 000 000 000 000 000 000 000 000 000 000 000 000 000 000 000 000 000 000 014 014 014 046 046 046 046 046 046 046 046 046 046 046 046 046 046 046 046 046 046 046 046 046 046 046 046 014 014 014 046 046 046 046 046 046 046 046 046 046 046 046 046 046 046 046 046 046 046 046 046 014 014 014 014 014 014 046 046 046 046 046 046 046 046 046 046 046 046 046 046 046 046 046 046 046 046 046 046 046 046 046 046 046 046 046 046 046 046 046 014 014 014 014 014 014 000 000 000 000 000 000 000 000 000 000 000 000 000 000 000 000 000 000 000 000 000 000 000 000 000 000 000 000 000 000 000 000 000
000 000 000 000 000 000 000 000 000 000 000 000 000 000 000 000 000 000 000 000 000 000 000 000 000 000 000 000 000 000 000 000 000 000 000 000 000 000 000 000 000 000 000 000 000 000 000 000 000 000 000 000 000 000 000 000 000 000 000 000 000 000 000 000 000 000 046 046 046 046 046 046 046 046 046 046 046 046 046 046 046 046 046 046 046 046 046 046 046 046 014 014 014 046 046 046 046 046 046 046 046 046 046 046 046 046 046 046 046 046 046 014 014 014 014 014 014 046 046 046 046 046 046 046 046 046 046 046 046 046 046 046 046 046 046 046 046 046 046 046 046 046 046 046 046 046 046 046 046 046 014 014 014 014 014 014 046 046 046 046 046 046 046 046 046 000 000 000 000 000 000 000 000 000 000 000 000 000 000 000 000 000 000 000 000 000 000 000 000 000 000 000
000 000 000 000 000 000 000 000 000 000 000 000 000 000 000 000 000 000 000 000 000 000 000 000 000 000 000 000 000 000 000 000 000 000 000 000 000 000 000 000 000 000 000 000 000 000 000 000 000 000 000 000 000 000 000 000 000 000 000 000 000 000 000 000 000 000 000 000 000 000 000 000 046 046 046 046 046 046 046 046 046 046 046 046 046 046 046 014 014 014 046 046 046 046 046 046 046 046 046 046 046 046 046 046 046 046 046 046 014 014 014 014 014 014 046 046 046 046 046 046 046 046 046 046 046 046 046 046 046 046 046 046 046 046 046 046 046 046 046 046 046 046 046 046 014 014 014 014 014 014 046 046 046 046 046 046 046 046 046 046 046 046 046 046 046 046 046 046 000 000 000 000 000 000 000 000 000 000 000 000 000 000 000 000 000 000 000 000 000 000 000 000
000 000 000 000 000 000 000 000 000 000 000 000 000 000 000 000 000 000 000 000 000 000 000 000 000 000 000 000 000 000 000 000 000 000 000 000 000 000 000 000 000 000 000 000 000 000 000 000 000 000 000 000 000 000 000 000 000 000 000 000 000 000 000 000 000 000 000 000 000 000 000 000 000 000 000 046 046 046 046 046 046 046 046 046 046 046 046 014 014 014 046 046 046 046 046 046 046 046 046 046 046 046 046 046 046 046 046 046 014 014 014 046 046 046 046 046 046 046 046 046 046 046 046 046 046 046 046 046 046 046 046 046 046 046 046 046 046 046 046 046 046 014 014 014 014 014 014 046 046 046 046 046 046 046 046 046 046 046 046 046 046 046 046 046 046 046 046 046 046 046 046 000 000 000 000 000 000 000 000 000 000 000 000 000 000 000 000 000 000 000 000 000
000 000 000 000 000 000 000 000 000 000 000 000 000 000 000 000 000 000 000 000 000 000 000 000 000 000 000 000 000 000 000 000 000 000 000 000 000 000 000 000 000 000 000 000 000 000 000 000 000 000 000 000 000 000 000 000 000 000 000 000 000 000 000 000 000 000 000 000 000 000 000 000 000 000 000 000 000 000 046 046 046 046 046 046 046 046 046 014 014 014 046 046 046 046 046 046 046 046 046 046 046 046 046 046 046 014 014 014 014 014 014 046 046 046 046 046 046 046 046 046 046 046 046 046 046 046 046 046 046 046 046 046 046 046 046 046 046 046 014 014 014 014 014 014 046 046 046 046 046 046 046 046 046 046 046 046 046 046 046 046 046 046 046 046 046 046 046 046 046 046 046 046 046 046 046 046 046 000 000 000 000 000 000 000 000 000 000 000 000 000 000 000
000 000 000 000 000 000 000 000 000 000 000 000 000 000 000 000 000 000 000 000 000 000 000 000 000 000 000 000 000 000 000 000 000 000 000 000 000 000 000 000 000 000 000 000 000 000 000 000 000 000 000 000 000 000 000 000 000 000 000 000 000 000 000 000 000 000 000 000 000 000 000 000 000 000 000 000 000 000 000 000 000 046 046 046 046 046 046 014 014 014 046 046 046 046 046 046 046 046 046 046 046 046 046 046 046 014 014 014 046 046 046 046 046 046 046 046 046 046 046 046 046 046 046 046 046 046 046 046 046 046 046 046 046 046 046 046 046 046 014 014 014 046 046 046 046 046 046 046 046 046 046 046 046 046 046 046 046 046 046 046 046 046 046 046 046 046 046 046 046 046 046 046 046 046 046 046 046 014 014 014 000 000 000 000 000 000 000 000 000 000 000 000
000 000 000 000 000 000 000 000 000 000 000 000 000 000 000 000 000 000 000 000 000 000 000 000 000 000 000 000 000 000 000 000 000 000 000 000 000 000 000 000 000 000 000 000 000 000 000 000 000 000 000 000 000 000 000 000 000 000 000 000 000 000 000 000 000 000 000 000 000 000 000 000 000 000 000 000 000 000 000 000 000 000 000 000 000 000 000 014 014 014 046 046 046 046 046 046 046 046 046 046 046 046 046 046 046 014 014 014 046 046 046 046 046 046 046 046 046 046 046 046 046 046 046 046 046 046 046 046 046 046 046 046 046 046 046 014 014 014 046 046 046 046 046 046 046 046 046 046 046 046 046 046 046 046 046 046 046 046 046 046 046 046 046 046 046 046 046 046 046 046 046 014 014 014 014 014 014 014 014 014 046 046 046 000 000 000 000 000 000 000 000 000
000 000 000 000 000 000 000 000 000 000 000 000 000 000 000 000 000 000 000 000 000 000 000 000 000 000 000 000 000 000 000 000 000 000 000 000 000 000 000 000 000 000 000 000 000 000 000 000 000 000 000 000 000 000 000 000 000 000 000 000 000 000 000 000 000 000 000 000 000 000 000 000 000 000 000 000 000 000 000 000 000 000 000 000 000 000 000 000 000 000 046 046 046 046 046 046 046 046 046 046 046 046 046 046 046 014 014 014 046 046 046 046 046 046 046 046 046 046 046 046 046 046 046 046 046 046 046 046 046 046 046 046 014 014 014 014 014 014 046 046 046 046 046 046 046 046 046 046 046 046 046 046 046 046 046 046 046 046 046 046 046 046 046 046 046 046 046 046 014 014 014 014 014 014 046 046 046 046 046 046 046 046 046 046 046 046 046 046 046 000 000 000
000 000 000 000 000 000 000 000 000 000 000 000 000 000 000 000 000 000 000 000 000 000 000 000 000 000 000 000 000 000 000 000 000 000 000 000 000 000 000 000 000 000 000 000 000 000 000 000 000 000 000 000 000 000 000 000 000 000 000 000 000 000 000 000 000 000 000 000 000 000 000 000 000 000 000 000 000 000 000 000 000 000 000 000 000 000 000 000 000 000 000 000 000 046 046 046 046 046 046 046 046 046 046 046 046 014 014 014 046 046 046 046 046 046 046 046 046 046 046 046 046 046 046 046 046 046 046 046 046 014 014 014 014 014 014 046 046 046 046 046 046 046 046 046 046 046 046 046 046 046 046 046 046 046 046 046 046 046 046 046 046 046 014 014 014 014 014 014 014 014 014 046 046 046 046 046 046 046 046 046 046 046 046 046 046 046 046 046 046 046 046 046
000 000 000 000 000 000 000 000 000 000 000 000 000 000 000 000 000 000 000 000 000 000 000 000 000 000 000 000 000 000 000 000 000 000 000 000 000 000 000 000 000 000 000 000 000 000 000 000 000 000 000 000 000 000 000 000 000 000 000 000 000 000 000 000 000 000 000 000 000 000 000 000 000 000 000 000 000 000 000 000 000 000 000 000 000 000 000 000 000 000 000 000 000 000 000 000 046 046 046 046 046 046 046 046 046 014 014 014 046 046 046 046 046 046 046 046 046 046 046 046 046 046 046 046 046 046 046 046 046 014 014 014 046 046 046 046 046 046 046 046 046 046 046 046 046 046 046 046 046 046 046 046 046 046 046 046 046 046 046 046 046 046 014 014 014 046 046 046 046 046 046 046 046 046 046 046 046 046 046 046 046 046 046 046 046 046 046 046 046 046 046 046
000 000 000 000 000 000 000 000 000 000 000 000 000 000 000 000 000 000 000 000 000 000 000 000 000 000 000 000 000 000 000 000 000 000 000 000 000 000 000 000 000 000 000 000 000 000 000 000 000 000 000 000 000 000 000 000 000 000 000 000 000 000 000 000 000 000 000 000 000 000 000 000 000 000 000 000 000 000 000 000 000 000 000 000 000 000 000 000 000 000 000 000 000 000 000 000 000 000 000 000 000 000 046 046 046 014 014 014 046 046 046 046 046 046 046 046 046 046 046 046 046 046 046 046 046 046 046 046 046 014 014 014 046 046 046 046 046 046 046 046 046 046 046 046 046 046 046 046 046 046 046 046 046 046 046 046 046 046 046 014 014 014 014 014 014 046 046 046 046 046 046 046 046 046 046 046 046 046 046 046 046 046 046 046 046 046 046 046 046 046 046 046
000 000 000 000 000 000 000 000 000 000 000 000 000 000 000 000 000 000 000 000 000 000 000 000 000 000 000 000 000 000 000 000 000 000 000 000 000 000 000 000 000 000 000 000 000 000 000 000 000 000 000 000 000 000 000 000 000 000 000 000 000 000 000 000 000 000 000 000 000 000 000 000 000 000 000 000 000 000 000 000 000 000 000 000 000 000 000 000 000 000 000 000 000 000 000 000 000 000 000 000 000 000 000 000 000 014 014 014 046 046 046 046 046 046 046 046 046 046 046 046 046 046 046 046 046 046 014 014 014 014 014 014 046 046 046 046 046 046 046 046 046 046 046 046 046 046 046 046 046 046 046 046 046 046 046 046 014 014 014 014 014 014 046 046 046 046 046 046 046 046 046 046 046 046 046 046 046 046 046 046 046 046 046 046 046 046 046 046 046 046 046 046
000 000 000 000 000 000 000 000 000 000 000 000 000 000 000 000 000 000 000 000 000 000 000 000 000 000 000 000 000 000 000 000 000 000 000 000 000 000 000 000 000 000 000 000 000 000 000 000 000 000 000 000 000 000 000 000 000 000 000 000 000 000 000 000 000 000 000 000 000 000 000 000 000 000 000 000 000 000 000 000 000 000 000 000 000 000 000 000 000 000 000 000 000 000 000 000 000 000 000 000 000 000 000 000 000 000 000 000 046 046 046 046 046 046 046 046 046 046 046 046 046 046 046 046 046 046 014 014 014 046 046 046 046 046 046 046 046 046 046 046 046 046 046 046 046 046 046 046 046 046 046 046 046 014 014 014 014 014 014 046 046 046 046 046 046 046 046 046 046 046 046 046 046 046 046 046 046 046 046 046 046 046 046 046 046 046 046 046 046 046 046 046
000 000 000 000 000 000 000 000 000 000 000 000 000 000 000 000 000 000 000 000 000 000 000 000 000 000 000 000 000 000 000 000 000 000 000 000 000 000 000 000 000 000 000 000 000 000 000 000 000 000 000 000 000 000 000 000 000 000 000 000 000 000 000 000 000 000 000 000 000 000 000 000 000 000 000 000 000 000 000 000 000 000 000 000 000 000 000 000 000 000 000 000 000 000 000 000 000 000 000 000 000 000 000 000 000 000 000 000 000 000 000 046 046 046 046 046 046 046 046 046 046 046 046 046 046 046 014 014 014 046 046 046 046 046 046 046 046 046 046 046 046 046 046 046 046 046 046 046 046 046 014 014 014 014 014 014 046 046 046 046 046 046 046 046 046 046 046 046 046 046 046 046 046 046 046 046 046 046 046 046 046 046 046 046 046 046 046 046 046 046 046 046
000 000 000 000 000 000 000 000 000 000 000 000 000 000 000 000 000 000 000 000 000 000 000 000 000 000 000 000 000 000 000 000 000 000 000 000 000 000 000 000 000 000 000 000 000 000 000 000 000 000 000 000 000 000 000 000 000 000 000 000 000 000 000 000 000 000 000 000 000 000 000 000 000 000 000 000 000 000 000 000 000 000 000 000 000 000 000 000 000 000 000 000 000 000 000 000 000 000 000 000 000 000 000 000 000 000 000 000 000 000 000 000 000 000 000 000 000 046 046 046 046 046 046 014 014 014 014 014 014 046 046 046 046 046 046 046 046 046 046 046 046 046 046 046 046 046 046 046 046 046 014 014 014 046 046 046 046 046 046 046 046 046 046 046 046 046 046 046 046 046 046 046 046 046 046 046 046 046 046 046 046 046 046 046 046 046 046 046 046 046 046 046
000 000 000 000 000 000 000 000 000 000 000 000 000 000 000 000 000 000 000 000 000 000 000 000 000 000 000 000 000 000 000 000 000 000 000 000 000 000 000 000 000 000 000 000 000 000 000 000 000 000 000 000 000 000 000 000 000 000 000 000 000 000 000 000 000 000 000 000 000 000 000 000 000 000 000 000 000 000 000 000 000 000 000 000 000 000 000 000 000 000 000 000 000 000 000 000 000 000 000 000 000 000 000 000 000 000 000 000 000 000 000 000 000 000 000 000 000 000 000 000 046 046 046 014 014 014 046 046 046 046 046 046 046 046 046 046 046 046 046 046 046 046 046 046 046 046 046 014 014 014 046 046 046 046 046 046 046 046 046 046 046 046 046 046 046 046 046 046 046 046 046 046 046 046 046 046 046 046 046 046 046 046 046 046 046 046 046 046 046 046 046 046
000 000 000 000 000 000 000 000 000 000 000 000 000 000 000 000 000 000 000 000 000 000 000 000 000 000 000 000 000 000 000 000 000 000 000 000 000 000 000 000 000 000 000 000 000 000 000 000 000 000 000 000 000 000 000 000 000 000 000 000 000 000 000 000 000 000 000 000 000 000 000 000 000 000 000 000 000 000 000 000 000 000 000 000 000 000 000 000 000 000 000 000 000 000 000 000 000 000 000 000 000 000 000 000 000 000 000 000 000 000 000 000 000 000 000 000 000 000 000 000 000 000 000 014 014 014 046 046 046 046 046 046 046 046 046 046 046 046 046 046 046 046 046 046 046 046 046 014 014 014 046 046 046 046 046 046 046 046 046 046 046 046 046 046 046 046 046 046 046 046 046 046 046 046 046 046 046 046 046 046 046 046 046 046 046 046 046 046 046 046 046 046
000 000 000 000 000 000 000 000 000 000 000 000 000 000 000 000 000 000 000 000 000 000 000 000 000 000 000 000 000 000 000 000 000 000 000 000 000 000 000 000 000 000 000 000 000 000 000 000 000 000 000 000 000 000 000 000 000 000 000 000 000 000 000 000 000 000 000 000 000 000 000 000 000 000 000 000 000 000 000 000 000 000 000 000 000 000 000 000 000 000 000 000 000 000 000 000 000 000 000 000 000 000 000 000 000 000 000 000 000 000 000 000 000 000 000 000 000 000 000 000 000 000 000 000 000 000 046 046 046 046 046 046 046 046 046 046 046 046 046 046 046 046 046 046 014 014 014 046 046 046 046 046 046 046 046 046 046 046 046 046 046 046 046 046 046 046 046 046 046 046 046 046 046 046 046 046 046 046 046 046 046 046 046 046 046 046 046 046 046 046 046 046
000 000 000 000 000 000 000 000 000 000 000 000 000 000 000 000 000 000 000 000 000 000 000 000 000 000 000 000 000 000 000 000 000 000 000 000 000 000 000 000 000 000 000 000 000 000 000 000 000 000 000 000 000 000 000 000 000 000 000 000 000 000 000 000 000 000 000 000 000 000 000 000 000 000 000 000 000 000 000 000 000 000 000 000 000 000 000 000 000 000 000 000 000 000 000 000 000 000 000 000 000 000 000 000 000 000 000 000 000 000 000 000 000 000 000 000 000 000 000 000 000 000 000 000 000 000 000 000 000 000 000 000 046 046 046 046 046 046 046 046 046 046 046 046 014 014 014 046 046 046 046 046 046 046 046 046 046 046 046 046 046 046 046 046 046 046 046 046 046 046 046 046 046 046 046 046 046 046 046 046 046 046 046 046 046 046 046 046 046 046 046 046
000 000 000 000 000 000 000 000 000 000 000 000 000 000 000 000 000 000 000 000 000 000 000 000 000 000 000 000 000 000 000 000 000 000 000 000 000 000 000 000 000 000 000 000 000 000 000 000 000 000 000 000 000 000 000 000 000 000 000 000 000 000 000 000 000 000 000 000 000 000 000 000 000 000 000 000 000 000 000 000 000 000 000 000 000 000 000 000 000 000 000 000 000 000 000 000 000 000 000 000 000 000 000 000 000 000 000 000 000 000 000 000 000 000 000 000 000 000 000 000 000 000 000 000 000 000 000 000 000 000 000 000 000 000 000 046 046 046 046 046 046 046 046 046 014 014 014 046 046 046 046 046 046 046 046 046 046 046 046 046 046 046 046 046 046 046 046 046 046 046 046 046 046 046 046 046 046 046 046 046 046 046 046 046 046 046 046 046 046 046 046 046
